X: 9998
T: Devils Of Dublin
R: reel
M: 4/4
K: Dmajor
|Adde Adfd|(3efe df efgf|
a2ag effe|dcBA BAFB|ABde fAac|1 dBAG FDDf:|2 dBAG FDFA||

